packages/icons/general/EmptySimple.light.svg

<svg viewBox="0 0 36 37" xmlns="http://www.w3.org/2000/svg">
    <g fill="none">
        <path
            fill-rule="evenodd"
            clip-rule="evenodd"
            d="M4.58926 5.22305C6.61192 3.2004 9.63194 2.43408 13.5003 2.43408H22.5003C26.3686 2.43408 29.3887 3.2004 31.4113 5.22305C33.434 7.2457 34.2003 10.2657 34.2003 14.1341V23.1341C34.2003 27.0024 33.434 30.0225 31.4113 32.0451C29.3887 34.0678 26.3686 34.8341 22.5003 34.8341H13.5003C9.63194 34.8341 6.61192 34.0678 4.58926 32.0451C2.56661 30.0225 1.80029 27.0024 1.80029 23.1341V14.1341C1.80029 10.2657 2.56661 7.2457 4.58926 5.22305ZM6.28632 6.92011C4.93397 8.27246 4.20029 10.5024 4.20029 14.1341V23.1341C4.20029 26.7657 4.93397 28.9957 6.28632 30.3481C7.63867 31.7004 9.86865 32.4341 13.5003 32.4341H22.5003C26.1319 32.4341 28.3619 31.7004 29.7143 30.3481C31.0666 28.9957 31.8003 26.7657 31.8003 23.1341V14.1341C31.8003 10.5024 31.0666 8.27246 29.7143 6.92011C28.3619 5.56776 26.1319 4.83408 22.5003 4.83408H13.5003C9.86865 4.83408 7.63867 5.56776 6.28632 6.92011Z"
            fill="#ACB4C1"
        />
        <path
            fill-rule="evenodd"
            clip-rule="evenodd"
            d="M25.7486 22.3211C25.7485 22.3214 25.7488 22.3208 25.7486 22.3211L24.4136 25.0061C23.7021 26.4291 22.2538 27.3344 20.6553 27.3344H15.3603C14.9239 27.3344 12.7631 27.3314 11.5909 25.0289L11.5857 25.0187L10.252 22.3361C10.2518 22.3357 10.2522 22.3364 10.252 22.3361C9.94329 21.7197 9.3214 21.3344 8.64029 21.3344H3.00029C2.33755 21.3344 1.80029 20.7972 1.80029 20.1344C1.80029 19.4717 2.33755 18.9344 3.00029 18.9344H8.64029C10.2388 18.9344 11.6871 19.8398 12.3986 21.2628L12.3998 21.2652L13.732 23.9446C14.2385 24.9345 15.072 24.9344 15.3577 24.9344H20.6553C21.3365 24.9344 21.9579 24.5502 22.2665 23.9337C22.2667 23.9334 22.2664 23.934 22.2665 23.9337L23.602 21.2478C24.3135 19.8248 25.7618 18.9194 27.3603 18.9194H32.9703C33.633 18.9194 34.1703 19.4567 34.1703 20.1194C34.1703 20.7822 33.633 21.3194 32.9703 21.3194H27.3603C26.6791 21.3194 26.0573 21.7046 25.7486 22.3211Z"
            fill="#ACB4C1"
        />
    </g>
</svg>

<svg xmlns="http://www.w3.org/2000/svg" viewBox="0 0 36 37">
    <g fill="#ACB4C1" fill-rule="evenodd" clip-rule="evenodd">
        <path d="M4.59 5.223C6.611 3.2 9.631 2.434 13.5 2.434h9c3.869 0 6.889.766 8.911 2.789 2.023 2.023 2.79 5.043 2.79 8.911v9c0 3.868-.767 6.889-2.79 8.911-2.022 2.023-5.042 2.79-8.91 2.79h-9c-3.87 0-6.89-.767-8.912-2.79-2.022-2.023-2.789-5.043-2.789-8.91v-9c0-3.87.767-6.89 2.79-8.912ZM6.285 6.92C4.934 8.272 4.2 10.502 4.2 14.134v9c0 3.632.734 5.862 2.086 7.214C7.64 31.7 9.87 32.434 13.5 32.434h9c3.632 0 5.862-.734 7.214-2.086 1.353-1.352 2.086-3.582 2.086-7.214v-9c0-3.632-.733-5.862-2.086-7.214-1.352-1.352-3.582-2.086-7.214-2.086h-9c-3.631 0-5.861.734-7.214 2.086Z"/>
        <path d="m25.749 22.321-1.335 2.685a4.2 4.2 0 0 1-3.759 2.328H15.36c-.436 0-2.597-.003-3.77-2.305l-.004-.01-1.334-2.683a1.802 1.802 0 0 0-1.612-1.002H3a1.2 1.2 0 1 1 0-2.4h5.64a4.2 4.2 0 0 1 3.759 2.329v.002l1.333 2.68c.507.99 1.34.99 1.626.99h5.297a1.8 1.8 0 0 0 1.611-1.001l1.336-2.686a4.2 4.2 0 0 1 3.758-2.329h5.61a1.2 1.2 0 0 1 0 2.4h-5.61c-.68 0-1.303.386-1.611 1.002Z"/>
    </g>
</svg>
